X:523
T: IM SCHOENSTEN WIESENGRUND
N: F0998
O: Europa, Mitteleuropa, Deutschland
R: Natur - Lied
M: 3/4
L: 1/16
K: Eb
E,2G,2 | B,6C2B,2A,2 | G,4G,4
B,4 | C6B,2A,2G,2 | F,8
B,4 | B,6B,2B,2E2 | E4C4
F4 | E8D4 | E4z4
B,2G,2 | G,3F,F,4
C2A,2 | A,3G,G,4
E,2G,2 | B,6B,2B,2E2 | E4C4
F4 | E8D4 | E8

